X:1
T:Quam pulchra es
T:John Pyamour
T:Quam pulchra es
C:John Pyamour
%%score [ 1 2 3 ]
L:1/8
Q:1/4=75
M:4/4
K:C
V:1 treble nm="Superius" snm="S"
V:2 treble-8 nm="Contratenor" snm="C"
V:3 bass nm="Tenor" snm="T"
V:1
 D3 EFG E2 | F A2 G E2 DF- | F G2 E !fermata!E4 | z2 F2 F2 E2 | D2 F2 F2 G2 | A2 GF-F/D/E D2 | %6
w: Quam, _ _ _ _|_ _ _ _ _ _||quam pul- chra|es, et quam de-|co- * * * * * *|
 E G2 F E2 z A- | AGFE-ED G2 | F E2 D ^C2 D2- | DFFF E2 z F | EG FD-DE ^C2 | D2 z C D F2 D | %12
w: ||* * * * ra,|_ ca- ris- si- ma, in|de- * li- * * * ci-|is! Sta- tu- * *|
 E2 F>ED/C/ C2 B, | C2 z2 E2 DD | F2 GA-AG E2 | DB, ^C2 D2 z2 | z4 z2 C2 | D F2 F D3 C- | %18
w: ra tu- * * * * *|a as- si- mi-|la- ta _ _ _ est|pal- * * mae,|et|u- * be- ra _|
 CA, _B,A,F,G, A,2 | z CDFzEDC | B,2 CC-C/D/EFE/F/ | GE D2 E2 z2 | C4 z FEG | FD C2 z EDF | %24
w: _ _ tu- * * * a|bo- * * * * *||* * * tris.|Ca- * * *|* * put tu- * *|
 ECB,C D2 A,2 | z8 | A,2 C2 E2 F2 | GAFF-FE F2 | z2 E6- | E2 GF ED C2 | z4 z D E2 | %31
w: * * * * um _||ut _ Car- *|me- * * * * * lus;|col-|* lum _ tu- * um|si- *|
 z A,CB,/C/DC/D<EC/ | C2 z FGE E2 | z F ED-DCDE | ^C2 DEFAG>F | E/D/ F2 E D^C/D/CB, | D2 z2 A4- | %37
w: |cut tur- * * ris|e- bur- * * * * *||* * * * ne- * * * *|a. Ve-|
 A4 G2 A2 | EF G2 A2 GG- | GEDEFGAG- | G^F G2 z2 D2 | A4 G2 F2 | E8 | z2 D2 FF E2 | %44
w: |||* * ni, di-|lec- te _|mi,|e- gre- di- a-|
 DF E/F/GF>D ^C2 | D2 CE-EDDC | A,_B,CD E2 DC- | C/A,/_B, A,2 EE E2 | E2 D2 ^C2 D2 | z2 E2 F A2 G | %50
w: mur _ in _ _ _ _ _|a- * * * * * *||* * * grum; vi- de- a-|mus si flo- res|fruc- tus par- tu-|
 EG F3 EDC | D2 E2 z2 C2- | C2 F4 E2- | ED DE ^C2 D2 | FG A2 G2 FG | A^F G2 z A2 F | z A2 G-GF DE | %57
w: ri- e- * * * *|runt, _ si|_ flo- ru-|* * e- * runt _|ma- * la pu- * *|ni- * ca; i- bi|da- bo _ _ ti- *|
 F4 z4 | C4 z4 | (3D3 E F2 (3:2:4E2 G2 FE | (3E2 C2 D2 (3E2 C3 A, | (3:2:4B,3 CDE (3:2:5D2 ^CCDB, | %62
w: bi|u-|be- * * ra _ _ _|me- * * * * *||
 D2 CE- E D2 G | F A2 GFEG>F | E/D/ D2 ^C D4- | D8 |] %66
w: a. Al- * * * *|le- * * * * * *|* * * lu- ia.|_|
V:2
 d3 cde c2 | d2 AB c2 d2 | fe c2 !fermata!c4 | z2 d2 d2 c2 | d4 A2 _B2 | A c2 d-dc d2 | %6
w: Quam, _ _ _ _|_ _ _ _ _||quam pul- chra|es, et quam|de- co- * * * *|
 c_BGA- A G2 D | FEDG-GF E2 | D C2 F E2 D2 | z AAA c2 A2 | z2 D3 A^GG | A2 GA-AFAB | c2 z A-AG FG | %13
w: ||* * * * ra,|ca- ris- si- ma, _|in de- li- ci-|is! _ _ _ _ _ _|_ Sta- * * tu- *|
 EA G2 z A Bd- | d d2 c de ^c2 | d2 z2 z2 AG | FD E2 D2 z A- | A2 _BA F2 G2 | F2 z2 z2 c2 | %19
w: ra tu- a as- si- *|* mi- * la- * ta|est pal- *|* * * mae, et|_ u- * be- ra|_ tu-|
 dc A2 z F G2 | ^F2 G4 z2 | z4 z2 C2 | z2 G2 A2 z E | DFE A- A G2 D | C2 z2 F4 | A3 G E2 DF- | %26
w: * * a bo- *|* tris.|Ca-||* * put tu- * * *|um ut|Car- * * me- *|
 F A2 c- c A2 d | c A2 F G2 F2 | c8 | G4 z2 z G | _BA FGA=B ^c2 | d2 z2 z2 G2- | GcBA c4 | %33
w: |* * * * lus;|col-|lum tu-|um _ si- * * * cut|_ tur-|* * * * ris|
 A2 GA-AGAB | ^G2 A2 z4 | z8 | A4 z4 | c4 _B2 Ac- | cd _B2 A c2 B | GA_Bc d c2 B | A2 G4 d2 | %41
w: e- bur- * * * * *|ne- a.||Ve-||||* ni, di-|
 f4 e2 d2 | c8 | z2 d2 dd c2 | d2 AGDF E2 | D F2 E G2 FA- | AGEFGA_BA- | AG A2 BB B2 | %48
w: lec- te _|mi,|e- gre- di- a-|mur in _ _ _ _|a- * * * * *||* * grum; vi- de- a-|
 B2 A2 ^G2 AB- | BA c2 A2 z2 | G2 A2 cBAG | A2 B2 G2 z2 | G2 A4 c2- | cB AG ^G2 A2- | %54
w: mus si flo- * *|* * res _|fruc- tus par- * tu- ri-|e- * runt,|si flo- ru-|* * e- * runt _|
 ABA c- ce dB | A2 G2 d4 | d2 z2 c2 B2 | d c2 AGA F2 | E2 z2 G4 | A2 AB c2 A2 | z G A2 G E2 F | %61
w: _ _ _ ma- * la pu- *|ni- ca; i-|bi da- bo|_ _ _ _ _ ti-|bi u-|be- ra _ _ _|me- * * * *|
 D2 z G A2 ^GG | AF G2 B A2 c | d>B c2 d2 Bc | B A2 ^G A4- | A8 |] %66
w: a. Al- * * le-|||* * lu- ia.|_|
V:3
 z8 | z8 | z8 | z8 | z8 | z8 | z8 | z8 | z8 | D,4 C,C, D,2 | E,2 F,4 E,2 | D,2 E,F, D,4 | %12
w: |||||||||ca- ris- si- ma,|in de- li-|* ci- * is!|
 z C, D,F,-F,E, D,E, | C,A,, _B,,2 A,,2 z2 | z8 | z2 E,2 D, F,2 E, | D,2 ^C,2 D,2 F,2- | %17
w: Sta- tu- * * * ra _|_ _ tu- a||est _ _ _|pal- * mae, et|
 F,2 D,F,- F,D, E,2 | F,2 G,F,-F,E, F,2- | F,6 z E, | D,2 C,4 D,E,- | E,G, F,2 E,4- | E,4 D,2 C,2 | %23
w: _ u- * * be- ra|_ tu- * * * a|_ bo-||* * * tris.|_ _ _|
 D,2 z A,, C,2 B,,2 | C,2 D,3 E, F,2- | F,D,F,E, ^C,2 D,2 | z8 | z8 | C,8 | E,4 G,F, E,2 | %30
w: * Ca- put _|tu- * * *|* * * * um _|||col-|* * * lum|
 G, F,2 E, F,2 z2 | D,2 E,2 F,2 E,2- | E,2 D,2 C,4 | D,2 E,F,-F,E,F,G, | E,2 D,C,D,F,E,G,- | %35
w: tu- * * um|si- * cut tur-|* * ris|e- bur- * * * * *||
 G, A,2 G,F,D, E,2 | D,8 | z8 | z8 | z8 | z8 | z8 | z8 | z8 | z8 | z8 | z8 | z4 E,E, G,2 | %48
w: * * * * * ne-|a.|||||||||||vi- de- a-|
 E,2 F,2 E,2 D,2- | D,2 C,2 D,2 E,2 | E,2 D, A,- A,G, F,E, | F,2 E,4 E,2- | E,2 D,4 C,2- | %53
w: mus si flo- res|_ _ fruc- *|tus _ par- * tu- ri- *|e- runt, si|_ flo- ru-|
 C,D, F,E, E,2 D,2 | z8 | z4 D,4 | D,2 E,2 F,2 G,2 | F,4 E,F, D,2 | E,8 | D,2 D,2 C,2 D,2 | %60
w: * * e- * runt _||i-|bi da- * *|bo ti- * *|bi|u- be- * ra|
 E,2 F,2 E,2 C,2 | D,2 E,2 F,2 E,2 | D,2 E,2 G,F, D,E, | D,2 F,E, D, G,2 A, | G,F, E,2 D,4- | %65
w: _ me- * *||a. _ Al- * le- *||* * lu- ia.|
 D,8 |] %66
w: _|

